!!!!SEGMENT: pl-sa--l-1636--107_anonim--plyncie.krn
!!!cenid: 17xx:814
!!!COM: Anonim
!!!COM-rismid: pe30004985
!!!CDT:
!!!CNT:
!!!OTL: Płyńcie
!!!PDT:
!!!AGN: Sacred
!!!SMS-siglum: PL-SA
!!!SMS-shelfmark: L 1636
!!!SMS-shelfwork: 107 W
!!!SMS-variant:
!!!SMS-altvar:
!!!NIFC-rismid: 1001087582
!!!URL-scan: http://repozytorium.nifc.pl/skany/pl-sa-nut--l1636
!!!ONB-nifc: 53v, skan 0045, s. 3-5
**kern	**kern
*part2	*part1
*staff2	*staff1
*I"Organo	*I"Organo
*clefF4	*clefC1
*k[]	*k[]
*a:	*a:
*M2/2	*M2/2
*met(c|)	*met(c|)
=1	=1
*	*^
!	!LO:SIC:o:s:=:v:all\right&colon;global	!
!LO:SIC:o:s:=:v:niejednoznaczny symbol po metrum na 4 polu	!LO:SIC:o:s:=:v:niejednoznaczny symbol po metrum na 4 polu	!
8AA/L	4.cc/	4.a\
8BB/	.	.
8C/	.	.
8D/J	16b/LL	16g#X\LL
.	16a/JJ	16f#X\JJ
!LO:SIC:o:s:=:v:all\right&colon;global	!	!
*2\right	*	*
2E\	2b/ 2g#X/	2reyy
*	*clefG2	*
=2	=2	=2
8C/L	4.ee/	4.cc\
8D/J	.	.
8E\L	.	.
8F\J	16dd/LL	16b\LL
.	16cc/JJ	16a\JJ
*	*	*2\right
4G\	2dd/	2b\
4GG/	.	.
=3	=3	=3
8C/L	4.gg/	4.ee\
8D/	.	.
8E/	.	.
8C/J	8gg/	8ee\
4D/	4ff/	4dd\
8E\L	4ee/	4cc\
8F\J	.	.
=4	=4	=4
*	*	*^
4G\	2dd/	8cc\L	4rffyy
.	.	16b\L	.
.	.	16a\JJ	.
4GG/	.	8g\L	4b/
.	.	8f\J	.
2C/	2cc/ 2g/ 2e/	2reyy	2rffyy
*	*	*v	*v
!!LO:LB:g=original
=5	=5	=5
8C/L	4.ee/	4.cc\
8D/	.	.
8E/	.	.
8C/J	8ee/	8cc\
8D\L	4dd/	8f#X\L
8E\J	.	8g#X\J
8F\L	4cc/	4a\
16C\L	.	.
16D\JJ	.	.
=6	=6	=6
*	*	*^
4E\	2b/	8a\L	4rffyy
.	.	16g#X\L	.
.	.	16f#X\JJ	.
4EE/	.	8e\L	4g#X/
.	.	8d\J	.
!LO:SIC:o:s:=:v:kreska taktowa początek/koniec repetycji	!LO:SIC:o:s:=:v:kreska taktowa początek/koniec repetycji	!	!
2AA/	2a/	2reyy	2rffyy
*	*	*v	*v
=7||	=7||	=7||
2EE/	2b/	2g#X\
8E\L	4b/	4g#\
!LO:TX:a:t=P:problem:# above	!	!
8F#X\	.	.
!LO:TX:a:t=P:problem:# above	!	!
8G#X\	4b/	4g#\
8E\J	.	.
*	*v	*v
=8	=8
!LO:TX:a:t=P:problem:mixed beam	!
8A\L	2cc/ 2a/
16AA/L	.
16BB/JJ	.
8C/L	.
8D/J	.
2E\	2b/ 2g#X/
=9	=9
*	*^
4.C/	4.gg/	4.ee\
8C/	16gg/LL	8ee\
.	16aa/JJ	.
4D/	8ff/L	4dd\
.	8gg/J	.
8E\L	4ee/	4cc\
8F\J	.	.
=10	=10	=10
4G\	2dd/	8cc\L
.	.	16b\L
.	.	16a\JJ
4GG/	.	4b\
!!LO:LB:g=original
2C/ 2CC/	2cc/ 2g/	2rgyy
=11	=11	=11
8C/L	4.gg/	4.ee\
16CC/L	.	.
16DD/J	.	.
8EE/	.	.
8CC/J	8gg/	8ee\
4DD/	8ff/L	4dd\
.	8gg/J	.
8EE/L	4ee/	4cc\
8FF/J	.	.
=12	=12	=12
2GG/	2dd/	8cc\L
.	.	16b\L
.	.	16a\JJ
.	.	4b\
2C/	2cc/ 2g/	2reyy
=13	=13	=13
8G\L	2dd/	2b\
8F\	.	.
8E\	.	.
8D\J	.	.
4C/	4ee/	4cc\
8F\L	4cc/	4a\
!LO:TX:a:t=d	!	!
8D\J	.	.
=14	=14	=14
*	*	*^
4E\	2b/	8a\L	4rffyy
!	!LO:TX:a:t=P:problem:# above	!	!
.	.	16g#X\L	.
!	!LO:TX:a:t=P:problem:# above	!	!
.	.	16f#X\JJ	.
4EE/	.	8e\L	4g#/
.	.	8d\J	.
!LO:SIC:o:s:=:v:kreska taktowa początek/koniec repetycji	!LO:SIC:o:s:=:v:kreska taktowa początek/koniec repetycji	!	!
2A/ 2E/ 2C#X/ 2AA/	2a/ 2e/ 2c#X/	2rAyy	2rffyy
*	*v	*v	*v
==	==
*-	*-
!!!system-decoration: s1,s2
!!!EED: Leszek Kubiak
!!!EST: 2020-12-09
!!!ENC: Andrzej Kubiczek
!!!END: 2020-06-13
